packages/gestalt-icons-android/vr-theme/ic_vr_clock-checked_gestalt.svg

<svg width="24" height="24" viewBox="0 0 24 24" fill="none" xmlns="http://www.w3.org/2000/svg">
<path d="M12 2C6.47715 2 2 6.47715 2 12C2 17.5228 6.47715 22 12 22C12.7832 22 13.5442 21.9102 14.2736 21.7406L14.7264 23.6887C13.8495 23.8925 12.9367 24 12 24C5.37258 24 0 18.6274 0 12C0 5.37258 5.37258 0 12 0C18.6274 0 24 5.37258 24 12H22C22 6.47715 17.5228 2 12 2Z" fill="black"/>
<path d="M11 5H13V11.5858L15.7071 14.2929L14.2929 15.7071L11 12.4142V5Z" fill="black"/>
<path d="M23.7071 16.2071L22.2929 14.7929L17.5 19.5858L15.7071 17.7929L14.2929 19.2071L17.5 22.4142L23.7071 16.2071Z" fill="black"/>
</svg>

<svg xmlns="http://www.w3.org/2000/svg" width="24" height="24"><path d="M12 2a10 10 0 1 0 2.27 19.74l.46 1.95q-1.33.3-2.73.31a12 12 0 1 1 12-12h-2A10 10 0 0 0 12 2m-1 3h2v6.59l2.7 2.7-1.4 1.42-3.3-3.3zm6.5 17.41-3.2-3.2 1.4-1.42 1.8 1.8 4.8-4.8 1.4 1.42z"/></svg>
